svg/akkoma.svg

<?xml version="1.0" encoding="UTF-8"?>
<svg width="512px" height="512px" viewBox="0 0 512 512" version="1.1" xmlns="http://www.w3.org/2000/svg" xmlns:xlink="http://www.w3.org/1999/xlink">
    <title>Akkoma logo [2 color]</title>
    <g id="Akkoma-logo-[2-color]" stroke="none" stroke-width="1" fill="none" fill-rule="evenodd">
        <path d="M139.745544,182.246317 C197.896253,184.96565 240.314405,190.883545 267,200 C289.788483,207.785106 348.274842,246.332973 351.097209,252.530479 C351.317421,253.014033 351.649429,253.767043 352.093231,254.789508 C389.105083,345.293142 400.303077,418.463506 385.687211,474.300598 C369.894271,534.634475 305.755298,511.365393 282.042938,472.502849 C261.412687,438.691622 253.03984,383.629072 241.486159,385.534009 C214.979181,389.904403 178.820676,522.020668 85.3280018,511.391657 C37.2604127,505.926942 36.3687331,438.648242 45.5303242,382.126986 C59.2497363,297.486843 90.6548096,230.859953 139.745544,182.246317 Z M211.977634,210 C174.508806,221.388029 155.850204,245.958286 156.001826,283.710772 C156.100749,308.34176 196.952553,318.492367 226.830028,313.943376 C287.074261,304.7709 275.693658,272.728314 267.01209,251.289387 C264.299625,244.591019 257.405713,235.040243 246.330353,222.637057 L211.977634,210 Z" id="Akkoma" fill="#58408C"></path>
        <path d="M256,226 C372,262 471,280.501539 471,262 C471,246.6558 458.619297,209.991395 349.432923,154.571128 C350.223779,128.108061 351.079471,111.917685 352,106 C359,61 396,15 382,2 C368,-11 275,56 236,88 C229.634794,93.2227334 217.993323,100.771865 201.075587,110.647394 C117.71034,102.986822 68.8355347,105.340035 56,127 C49,142 140,190 256,226 Z" id="Oval" fill="#000000"></path>
    </g>
</svg>

<?xml version="1.0" encoding="utf-8"?>
<!-- Generator: Adobe Illustrator 28.2.0, SVG Export Plug-In . SVG Version: 6.00 Build 0)  -->
<svg version="1.1" id="Layer_1" xmlns="http://www.w3.org/2000/svg" xmlns:xlink="http://www.w3.org/1999/xlink" x="0px" y="0px"
	 viewBox="0 0 512 512" style="enable-background:new 0 0 512 512;" xml:space="preserve">
<style type="text/css">
	.st0{fill-rule:evenodd;clip-rule:evenodd;fill:#58408C;}
	.st1{fill-rule:evenodd;clip-rule:evenodd;}
</style>
<path id="Akkoma" class="st0" d="M139.7,182.2c58.2,2.7,100.6,8.6,127.3,17.8c22.8,7.8,81.3,46.3,84.1,52.5c0.2,0.5,0.6,1.2,1,2.3
	c37,90.5,48.2,163.7,33.6,219.5c-15.8,60.3-79.9,37.1-103.6-1.8c-20.6-33.8-29-88.9-40.6-87C215,389.9,178.8,522,85.3,511.4
	c-48.1-5.5-49-72.7-39.8-129.3C59.2,297.5,90.7,230.9,139.7,182.2z M212,210c-37.5,11.4-56.1,36-56,73.7c0.1,24.6,41,34.8,70.8,30.2
	c60.2-9.2,48.9-41.2,40.2-62.7c-2.7-6.7-9.6-16.2-20.7-28.7L212,210z"/>
<path id="Oval" class="st1" d="M256,226c116,36,215,54.5,215,36c0-15.3-12.4-52-121.6-107.4c0.8-26.5,1.6-42.7,2.6-48.6
	c7-45,44-91,30-104S275,56,236,88c-6.4,5.2-18,12.8-34.9,22.6C117.7,103,68.8,105.3,56,127C49,142,140,190,256,226z"/>
</svg>
